website/public/document_step.svg

<svg xmlns="http://www.w3.org/2000/svg" width="171" height="124" viewBox="0 0 171 124">
  <defs>
    <linearGradient id="document_step-a" x1="50%" x2="50%" y1="0%" y2="100%">
      <stop offset="0%" stop-color="#B9D4F3"/>
      <stop offset="100%" stop-color="#FEFEFE" stop-opacity="0"/>
    </linearGradient>
  </defs>
  <g fill="none" fill-rule="evenodd">
    <rect width="114" height="68" x="57" y="56" fill="url(#document_step-a)"/>
    <rect width="135" height="9" x="36" fill="#B9D4F3"/>
    <rect width="135" height="9" x="36" y="18" fill="#B9D4F3"/>
    <rect width="129" height="9" x="42" y="36" fill="#B9D4F3"/>
    <path fill="#000" fill-rule="nonzero" d="M24.3886926,120 L24.3886926,117.263234 C21.5053004,116.967368 19.5429918,116.523568 18.5017668,115.931835 C16.819788,114.945613 15.9787986,113.170413 15.9787986,110.606236 C15.9787986,109.324148 16.2891637,107.585932 16.909894,105.391588 C17.5306243,103.197244 19.442874,97.1443075 22.6466431,87.2327774 L22.6466431,87.2327774 L54.844523,87.2327774 L59.95053,101.804206 C60.6713781,103.875272 61.2320377,105.847716 61.6325088,107.721537 C62.03298,109.595359 62.2332155,110.902103 62.2332155,111.641769 C62.2332155,113.860769 61.7126031,115.253807 60.6713781,115.820885 C59.6301531,116.387962 57.3074205,116.868745 53.7031802,117.263234 L53.7031802,117.263234 L53.7031802,120 L85,120 L85,117.263234 C82.1166078,116.770123 80.0641932,115.84554 78.8427562,114.489485 C77.6213192,113.13343 75.9893993,109.595359 73.9469965,103.875272 L73.9469965,103.875272 L43.3109541,18 L40.9081272,18 L15.2579505,92.3364757 C11.4134276,103.480783 8.70023557,110.31037 7.11837456,112.825236 C5.53651355,115.340102 3.16372203,116.819434 0,117.263234 L0,117.263234 L0,120 L24.3886926,120 Z M54,82 L26,82 L39.910828,40 L54,82 Z"/>
  </g>
</svg>

<svg xmlns="http://www.w3.org/2000/svg" viewBox="0 0 171 124"><defs><linearGradient id="a" x1="50%" x2="50%" y1="0%" y2="100%"><stop offset="0%" stop-color="#B9D4F3"/><stop offset="100%" stop-color="#FEFEFE" stop-opacity="0"/></linearGradient></defs><g fill="none" fill-rule="evenodd"><path fill="url(#a)" d="M57 56h114v68H57z"/><path fill="#B9D4F3" d="M36 0h135v9H36zM36 18h135v9H36zM42 36h129v9H42z"/><path fill="currentColor" fill-rule="nonzero" d="M24.389 120v-2.737c-2.884-.296-4.846-.74-5.887-1.331-1.682-.986-2.523-2.762-2.523-5.326 0-1.282.31-3.02.93-5.214.622-2.195 2.534-8.248 5.738-18.16h32.198l5.106 14.572a49.608 49.608 0 011.682 5.918c.4 1.873.6 3.18.6 3.92 0 2.219-.52 3.612-1.562 4.179-1.04.567-3.364 1.048-6.968 1.442V120H85v-2.737c-2.883-.493-4.936-1.417-6.157-2.774-1.222-1.356-2.854-4.894-4.896-10.614L43.311 18h-2.403l-25.65 74.336c-3.845 11.145-6.558 17.974-8.14 20.49-1.581 2.514-3.954 3.993-7.118 4.437V120h24.389zM54 82H26l13.91-42L54 82z"/></g></svg>
